X: 29120
T: Nellie's
R: jig
M: 6/8
K: Gmajor
|:d|"G"g2 d BdB|GDG BAG|"Am"AcA FEF|"D"DFA def|
"G"g2 d BdB|GDG BAG|"Am"ABc def|"G"g3 g2:|
|:F|"G"G2 g gfg|ded BAG|"Am"A2 a aba|"D"fed cBA|
"G"G2 g gfg|ded BAG|"Am"ABc def|"G"g3 g2:|

